X:261
T: AUF MEINEM GRAB DA LIEGT EIN STEIN
N: Z0259
O: Europa, Mitteleuropa, Deutschland, Westfalen
R: lyrisches Lied, Romanze, Tod
M: 2/4
L: 1/8
K: G
DGA | B2d2 | BBAA | G
DGB | d2ge | cBcB | c
BAB | c2dc | BABA | B
AGA | BBdd | BBAA | G

